X: 135
T: Those Hills I Trod Upon
C: Teton Sioux band 1911-1914
N: Derived from sioux132c.krn
O: South Dakota, U.S.A.
N: Teton Sioux Music by Frances Densmore, 1918
Z: transcribed to **kern format by Craig Sapp
L: 1/8
M: 3/4
Q: 1/4=58
K: F clef=bass
%%linebreak <none>
D,3/ D,/ [I:setbarnb 1]| 
D4C D/ C/ | 
B,> G,B,2G, z/ B,/ | 
B,> D D B, G,3/ G,/ | 
F,> D,F,2D, z/ G,/ ||  
[M:2/4]G,> B, B, G, | 
F,> F, F,3/ D,/ | 
D, D, D,3/ D,/ | 
D, D, D,3/ D,/ ||  
[M:3/4]D,> F,F,2D,3/ D,/ ||  
[M:2/4]D,3D, | 
D,2D,2 | 
z2D,3/ D,/ | 
D> D C3/ C/ ||  
[M:3/4]B,> G,B,2G, z/ B,/ ||  
[M:2/4]B,> D (D/ B,3/) | 
G,> G, F,3/ D,/ | 
F,> F, D, z/ G,/ | 
G,> G, (B,/ G,3/) | 
F,> F, F,3/ D,/ | 
D,> D, D, D, ||  
[M:3/4]D,> D, D, D, D,3/ D,/ | 
D,> F,F,2D,3/ D,/ ||  
[M:2/4]D,4 | 
D,2z2 |]  



